gama.ui.shared/icons_svg/dark/gaml/_user_command.svg

<svg height="18" viewBox="-310.71 -2806.937 24 18" width="24" xmlns="http://www.w3.org/2000/svg"><path d="m-301.29613-2797.1354 2.93969 1.3339c.75616.3485 1.24894 1.1045 1.24894 1.9371v.6034c0 1.1723-.95158 2.124-2.12405 2.124h-9.35435c-1.17246 0-2.12403-.9517-2.12403-2.124v-.6034c0-.8326.48428-1.5886 1.24893-1.9371l2.9397-1.3339c-.99406-.7816-1.63128-1.9881-1.63128-3.3476-.00849-2.345 1.89466-4.248 4.23961-4.248 2.34497 0 4.24811 1.903 4.24811 4.248 0 1.3595-.63722 2.5744-1.63127 3.3476zm-4.35007.5354-3.46645 1.58c-.45879.204-.74765.663-.74765 1.164v.6034c0 .7051.56923 1.2744 1.2744 1.2744h9.34585c.70518 0 1.27443-.5693 1.27443-1.2744v-.6034c0-.501-.28888-.9515-.74768-1.164l-3.46644-1.58c-.52676.2377-1.113.3652-1.73323.3652s-1.20646-.1275-1.73323-.3652zm1.73323-.4844c1.87767 0 3.39847-1.5209 3.39847-3.3986 0-1.8776-1.5208-3.3984-3.39847-3.3984-1.87766 0-3.39848 1.5208-3.39848 3.3984 0 1.8777 1.52082 3.3986 3.39848 3.3986zm6.0663-5.2252c-.16143-.17-.16143-.4334 0-.6034.16992-.1613.4333-.1613.60323 0 1.31691 1.3425 1.31691 3.5006 0 4.843-.16143.17-.43331.17-.60323 0-.16993-.1614-.16993-.4333 0-.6032.99407-1.0111.99407-2.6424 0-3.6534zm1.72473-1.6824c-.17842-.1528-.18692-.4247-.03399-.603.15293-.1785.42483-.187.60323-.034 2.2855 2.056 2.4724 5.582.40782 7.8674-.12744.1446-.26338.2804-.40782.4078-.1784.1528-.4418.1445-.60323-.034-.16142-.1784-.14443-.4418.03399-.6032.11894-.1104.23789-.221.34834-.3483 1.75022-1.9372 1.5888-4.9194-.34834-6.6697z" fill="#999"/></svg>

<?xml version="1.0" encoding="UTF-8" standalone="no"?>
<!DOCTYPE svg PUBLIC "-//W3C//DTD SVG 1.1//EN" "http://www.w3.org/Graphics/SVG/1.1/DTD/svg11.dtd">
<svg xmlns:dc="http://purl.org/dc/elements/1.1/" xmlns:xl="http://www.w3.org/1999/xlink" version="1.1" xmlns="http://www.w3.org/2000/svg" viewBox="-310.70993 -2806.937 24 18" width="24" height="18">
  <defs/>
  <g id="SOURCES" stroke-dasharray="none" stroke="none" stroke-opacity="1" fill="none" fill-opacity="1">
    <title>SOURCES</title>
    <g id="SOURCES_New">
      <title>New</title>
      <g id="Group_10488">
        <g id="Graphic_10227"/>
        <g id="Group_10225">
          <title>user-interview</title>
          <g id="Graphic_10226">
            <path d="M -301.29613 -2797.1354 L -298.35644 -2795.8015 C -297.60028 -2795.453 -297.1075 -2794.697 -297.1075 -2793.8644 L -297.1075 -2793.261 C -297.1075 -2792.0887 -298.05908 -2791.137 -299.23155 -2791.137 L -308.5859 -2791.137 C -309.75836 -2791.137 -310.70993 -2792.0887 -310.70993 -2793.261 L -310.70993 -2793.8644 C -310.70993 -2794.697 -310.22565 -2795.453 -309.461 -2795.8015 L -306.5213 -2797.1354 C -307.51536 -2797.917 -308.15258 -2799.1235 -308.15258 -2800.483 C -308.16107 -2802.828 -306.25792 -2804.731 -303.91297 -2804.731 C -301.568 -2804.731 -299.66486 -2802.828 -299.66486 -2800.483 C -299.66486 -2799.1235 -300.30208 -2797.9086 -301.29613 -2797.1354 Z M -305.6462 -2796.6 L -309.11265 -2795.02 C -309.57144 -2794.816 -309.8603 -2794.357 -309.8603 -2793.856 L -309.8603 -2793.2526 C -309.8603 -2792.5475 -309.29107 -2791.9782 -308.5859 -2791.9782 L -299.24005 -2791.9782 C -298.53487 -2791.9782 -297.96562 -2792.5475 -297.96562 -2793.2526 L -297.96562 -2793.856 C -297.96562 -2794.357 -298.2545 -2794.8075 -298.7133 -2795.02 L -302.17974 -2796.6 C -302.7065 -2796.3623 -303.29274 -2796.2348 -303.91297 -2796.2348 C -304.5332 -2796.2348 -305.11943 -2796.3623 -305.6462 -2796.6 Z M -303.91297 -2797.0844 C -302.0353 -2797.0844 -300.5145 -2798.6053 -300.5145 -2800.483 C -300.5145 -2802.3606 -302.0353 -2803.8814 -303.91297 -2803.8814 C -305.79063 -2803.8814 -307.31145 -2802.3606 -307.31145 -2800.483 C -307.31145 -2798.6053 -305.79063 -2797.0844 -303.91297 -2797.0844 Z M -297.84667 -2802.3096 C -298.0081 -2802.4796 -298.0081 -2802.743 -297.84667 -2802.913 C -297.67675 -2803.0743 -297.41337 -2803.0743 -297.24344 -2802.913 C -295.92653 -2801.5705 -295.92653 -2799.4124 -297.24344 -2798.07 C -297.40487 -2797.9 -297.67675 -2797.9 -297.84667 -2798.07 C -298.0166 -2798.2314 -298.0166 -2798.5033 -297.84667 -2798.6732 C -296.8526 -2799.6843 -296.8526 -2801.3156 -297.84667 -2802.3266 Z M -296.12194 -2803.992 C -296.30036 -2804.1448 -296.30886 -2804.4167 -296.15593 -2804.595 C -296.003 -2804.7735 -295.7311 -2804.782 -295.5527 -2804.629 C -293.2672 -2802.573 -293.0803 -2799.047 -295.14488 -2796.7616 C -295.27232 -2796.617 -295.40826 -2796.4812 -295.5527 -2796.3538 C -295.7311 -2796.201 -295.9945 -2796.2093 -296.15593 -2796.3878 C -296.31735 -2796.5662 -296.30036 -2796.8296 -296.12194 -2796.991 C -296.003 -2797.1014 -295.88405 -2797.212 -295.7736 -2797.3393 C -294.02338 -2799.2765 -294.1848 -2802.2587 -296.12194 -2804.009 Z" fill="#999"/>
          </g>
        </g>
      </g>
    </g>
  </g>
</svg>
